X:1
T:Title
L:1/8
Q:1/4=100
M:4/4
K:Ab
V:1 treble nm="Grand Piano"
V:1
 G2 E2 D2 CC | G2 GF A2 A2- | AA/A/ AG GFFE | DFED C4 | z G/G/ G2 E2 C2 | CGGF A2 A2- | AAAG GFFE | %7
w: ????~???? * * * *|||||||
 DFED C4 | z c c2 c2 c2 | c2 cB d2 c2- | cc/c/ c2 c2 cc | e2 ed dcdc | BBB=A cB_AG | FAAG BAGF | %14
w: |||||||
 EGGF AGFE | DFED C2 C2 |] %16
w: ||

